X:1
T:The Lollipop Man
M:4/4
C:
S:Seabright
N:
A:Adderbury
O:English
R:Reel
%P:A.(AB$^3$)$^3$.A
P:A.(AB3)3.A
K:G
I:speed 300
%
P:A
B>A  | G>B  D2 D2 D>E  | G2 G2 G7/2 A/2 | B>AG>A    B2 A>G  | B2 E2 E2 \
B>A  | G>B  D2 D2 D>E  | G2 G2 G7/2 d/2 | e>de>f    g2 d>c  | B2 G2 G2 ||\
P:B
z2   | d4      g>fe>g  | B2 d2 d2 c>B   | A>GA>B    c>BA>G  | B2 E2 E2 \
B>A  | G>B  D2 D2 D>E  | G2 G2 G7/2 d/2 | e>de>f    g2 d>c  | B2 G2 G2 ||
